X: 41295
T: Tunbridge Beauties
R: polka
M: 2/4
K: Eminor
e2B>c|B/A/G/F/ EE/F/|GG AB|cB/A/ BB/d/|e2B>c|B/A/G/F/ EE/F/|GG AG/F/|1 E2 EB/d/:|2 E>d ef||
g2d>e|d/c/B/A/ G/A/B/c/|dd AB|A/G/F/E/ DE/F/|GG AB|cB/A/ Bc/d/|ef g/f/d|1 e>d ef:|e2e2||

